X: 6457
T: Cat In The Corner, The
R: slide
M: 12/8
K: Gmajor
|:A|B2 B A2 G BdB AGA|B2 e d2 B A3 AGA|
B3 A^GA B/c/dB AGA|B2 e d2 B G3 G2:|
|:d|e2 e e2 d e2 f g3|B2 c d2 B A3 A2 d|
e3 e2 d e2 f g2 B|B2 e d2 B G3 G2:|

